!!!COM: Vivaldi, Antonio Lucio
!!!CDT: 1678/03/04-1741/08/28
!!!OPR: 12 sonatas for two violins and basso continuo
!!!OTL: Sonata in E-flat major, op. @{OPS}, no. @{ONM} (@{SCT})
!!!OPS: 1
!!!ONM: 7
!!!OMV: 3. Sarabanda
!!!SCT: RV 73
!!!SCA: Antonio Vivaldi: Thematisch-systematisches Verzeichnis seiner Werke (Ryom-Verzeichnis)
!!!OMD: Andante
!!!key: E-
**kern	**dynam	**fb	**kern	**dynam	**kern	**dynam
*part3	*	*	*part2	*	*part1	*
*staff3	*	*	*staff2	*	*staff1	*
*ICstr&ICklav	*	*	*ICstr	*	*ICstr	*
*Icello&Icemba	*	*	*Ivioln	*	*Ivioln	*
*	*	*	*I#2	*	*I#1	*
*I"Violoncello\nContinuo	*	*	*I"Violin 2	*	*I"Violin 1	*
*I'bc	*	*	*I'v2	*	*I'v1	*
*>[A,A,B,B]	*>[A,A,B,B]	*>[A,A,B,B]	*>[A,A,B,B]	*>[A,A,B,B]	*>[A,A,B,B]	*>[A,A,B,B]
*>norep[A,B]	*>norep[A,B]	*>norep[A,B]	*>norep[A,B]	*>norep[A,B]	*>norep[A,B]	*>norep[A,B]
*>A	*>A	*>A	*>A	*>A	*>A	*>A
*clefF4	*	*	*clefG2	*	*clefG2	*
*	*	*	*	*	*	*
*M3/4	*	*	*M3/4	*	*M3/4	*
*MM60	*	*	*MM60	*	*MM60	*
*E-:	*	*	*E-:	*	*E-:	*
=1	=1	=1	=1	=1	=1	=1
8E-y\L	.	.	[2.ee-y\	.	4r	.
8F\	.	.	.	.	.	.
8G\	.	6	.	.	4gg\	.
8F\	.	.	.	.	.	.
8G\	.	.	.	.	4e-y/	.
8E-y\J	.	.	.	.	.	.
=2	=2	=2	=2	=2	=2	=2
8F\L	.	7 -	4ee-y\]	.	4aa-X\	.
8F\	.	.	.	.	.	.
8B-y\	.	5 4	2dd\	.	4f/	.
8A-X\	.	.	.	.	.	.
8B-y\	.	3	.	.	4bb-y\	.
8BB-y\J	.	.	.	.	.	.
=3	=3	=3	=3	=3	=3	=3
8E-y\L	.	.	4ee-y\	.	4gg\	.
8F\	.	.	.	.	.	.
8G\	.	6	4b-y\	.	4e-y/	.
8F\	.	.	.	.	.	.
8G\	.	.	[4ee-y\	.	4gg\	.
8E-y\J	.	.	.	.	.	.
=4	=4	=4	=4	=4	=4	=4
8B-y\L	.	5 4	4ee-y\]	.	4ff\	.
8c\	.	.	.	.	.	.
8d\	.	6	[2dd\	.	4bb-y\	.
8c\	.	.	.	.	.	.
8d\	.	.	.	.	4b-y\	.
8B-y\J	.	.	.	.	.	.
=5	=5	=5	=5	=5	=5	=5
8c\L	.	9	4dd\]	.	4ee-y\	.
8B-y\	.	.	.	.	.	.
8A\	.	3	[2cc\	.	8ff\L	.
8G\	.	.	.	.	8gg\	.
8A\	.	.	.	.	8ff\	.
8F\J	.	.	.	.	8ee-y\J	.
=6	=6	=6	=6	=6	=6	=6
8B-y\L	.	9	4cc\]	.	4dd\	.
8c\	.	.	.	.	.	.
8d\	.	6	[2b-y\	.	4ff\	.
8c\	.	.	.	.	.	.
8d\	.	.	.	.	4bb-y\	.
8B-y\J	.	.	.	.	.	.
=7	=7	=7	=7	=7	=7	=7
8e-y\L	.	7 5	4b-y\]	.	4dd\	.
8c\	.	.	.	.	.	.
8f\	.	.	2a/	.	2cc\	.
8e-y\	.	.	.	.	.	.
8f\	.	.	.	.	.	.
8F\J	.	.	.	.	.	.
!!LO:LB:g=original
=8	=8	=8	=8	=8	=8	=8
2.B-y\	.	.	2.b-y\	.	2.b-y\	.
=9:|!|:	=9:|!|:	=9:|!|:	=9:|!|:	=9:|!|:	=9:|!|:	=9:|!|:
*>B	*>B	*>B	*>B	*>B	*>B	*>B
8E-y\L	.	.	[2.ee-y\	.	4r	.
8F\	.	.	.	.	.	.
8G\	.	.	.	.	4gg\	.
8F\	.	.	.	.	.	.
8G\	.	.	.	.	4e-y/	.
8E-y\J	.	.	.	.	.	.
=10	=10	=10	=10	=10	=10	=10
8F\L	.	7 -	4ee-y\]	.	4aa-X\	.
8G\	.	.	.	.	.	.
8A-X\	.	6 4	[2dd\	.	4ff\	.
8G\	.	.	.	.	.	.
8A-X\	.	.	.	.	4dd\	.
8F\J	.	.	.	.	.	.
=11	=11	=11	=11	=11	=11	=11
8G\L	.	n	4dd\]	.	4bn\	.
8A-X\	.	.	.	.	.	.
8G\	.	.	2bn\	.	8gg\L	.
8F\	.	.	.	.	8aa-X\	.
8E-y\	.	.	.	.	8gg\	.
8D\J	.	.	.	.	8ff\J	.
=12	=12	=12	=12	=12	=12	=12
8C/L	.	.	2.cc\	.	4.ee-y\	.
8BBn/	.	.	.	.	.	.
8C/	.	.	.	.	.	.
8D/	.	.	.	.	8dd\	.
8E-y/	.	6	.	.	4cc\	.
8C/J	.	.	.	.	.	.
=13	=13	=13	=13	=13	=13	=13
8BBn/L	.	.	4dd\	.	4gg\	.
8C/	.	.	.	.	.	.
8D/	.	6nr 4	4.dd\	.	4.gg\	.
8C/	.	.	.	.	.	.
8D/	.	.	.	.	.	.
8BBn/J	.	.	8dd\	.	8aa-X\	.
=14	=14	=14	=14	=14	=14	=14
8C/L	.	.	4.ee-y\	.	4.gg\	.
8BBn/	.	.	.	.	.	.
8C/	.	.	.	.	.	.
8D/	.	.	8dd\	.	8ff\	.
8E-y/	.	6	[4cc\	.	[4ee-y\	.
8C/J	.	.	.	.	.	.
=15	=15	=15	=15	=15	=15	=15
8F\L	.	7 5 -	4cc\]	.	4ee-y\]	.
8D\	.	.	.	.	.	.
8G\	.	n	2bn\	.	2dd\	.
8F\	.	.	.	.	.	.
8G\	.	.	.	.	.	.
8GG\J	.	.	.	.	.	.
!!LO:LB:g=original
=16	=16	=16	=16	=16	=16	=16
8C\L	.	.	2.cc\	.	2.cc\	.
8c\	.	.	.	.	.	.
8B-y\	.	4 2	.	.	.	.
8A-X\	.	.	.	.	.	.
8G\	.	6	.	.	.	.
8F\J	.	.	.	.	.	.
=17	=17	=17	=17	=17	=17	=17
8E-y\L	.	.	[2.ee-y\	.	4r	.
8F\	.	.	.	.	.	.
8G\	.	6	.	.	4gg\	.
8F\	.	.	.	.	.	.
8G\	.	.	.	.	4ee-y\	.
8E-y\J	.	.	.	.	.	.
=18	=18	=18	=18	=18	=18	=18
8B-y\L	.	5 4	4ee-y\]	.	4ff\	.
8c\	.	.	.	.	.	.
8d\	.	6	[2dd\	.	4bb-y\	.
8c\	.	.	.	.	.	.
8d\	.	.	.	.	4b-y\	.
8B-y\J	.	.	.	.	.	.
=19	=19	=19	=19	=19	=19	=19
8c\L	.	9	4dd\]	.	4.ee-y\	.
8B-y\	.	.	.	.	.	.
8An\	.	3	[2cc\	.	.	.
8G\	.	.	.	.	8gg\	.
8A\	.	.	.	.	8ff\L	.
8F\J	.	.	.	.	8ee-y\J	.
=20	=20	=20	=20	=20	=20	=20
8B-y\L	.	9	4cc\]	.	4dd\	.
8A-X\	.	.	.	.	.	.
8G\	.	3	[2b-y\	.	8ee-y\L	.
8F\	.	.	.	.	8ff\J	.
8E-y\	.	.	.	.	4gg\	.
8G\J	.	.	.	.	.	.
=21	=21	=21	=21	=21	=21	=21
8A-X\L	.	9	4b-y\]	.	4cc\	.
8G\	.	.	.	.	.	.
8F\	.	-	[2a-X/	.	4ff\	.
8E-y\	.	.	.	.	.	.
8F\	.	.	.	.	4d/	.
8D\J	.	.	.	.	.	.
=22	=22	=22	=22	=22	=22	=22
8E-y\L	.	5 4-r	4a-y]	.	4B-y/	.
8F\	.	.	.	.	.	.
8G\	.	-	2g/	.	4b-y\	.
8F\	.	.	.	.	.	.
8G\	.	.	.	.	[4ee-y\	.
8E-y\J	.	.	.	.	.	.
=23	=23	=23	=23	=23	=23	=23
8A-X\L	.	6 5	2.f/	.	4ee-y\]	.
8F\	.	.	.	.	.	.
8B-y\	.	.	.	.	4B-y/	.
8A-X\	.	.	.	.	.	.
8B-y\	.	.	.	.	4dd\t	.
8BB-y\J	.	.	.	.	.	.
!!LO:LB:g=original
=24	=24	=24	=24	=24	=24	=24
8E-y\L	.	.	2.e-y/	.	2.ee-y\	.
8c\	.	.	.	.	.	.
8B-y\	.	6 4	.	.	.	.
8A-X\	.	.	.	.	.	.
8G\	.	6	.	.	.	.
8F\J	.	.	.	.	.	.
=25	=25	=25	=25	=25	=25	=25
8E-y\L	p	.	[2.ee-y\	p	4r	.
8F\	.	.	.	.	.	.
8G\	.	6	.	.	4gg\	p
8F\	.	.	.	.	.	.
8G\	.	.	.	.	4ee-y\	.
8E-y\J	.	.	.	.	.	.
=26	=26	=26	=26	=26	=26	=26
8B-y\L	.	5 4	4ee-y\]	.	4ff\	.
8c\	.	.	.	.	.	.
8d\	.	6	[2dd\	.	4bb-y\	.
8c\	.	.	.	.	.	.
8d\	.	.	.	.	4b-y\	.
8B-y\J	.	.	.	.	.	.
=27	=27	=27	=27	=27	=27	=27
8c\L	.	9	4dd\]	.	4.ee-y\	.
8B-y\	.	.	.	.	.	.
8An\	.	3	[2cc\	.	.	.
8G\	.	.	.	.	8gg\	.
8A\	.	.	.	.	8ff\L	.
8F\J	.	.	.	.	8ee-y\J	.
=28	=28	=28	=28	=28	=28	=28
8B-y\L	.	9	4cc\]	.	4dd\	.
8A-X\	.	.	.	.	.	.
8G\	.	3	[2b-y\	.	8ee-y\L	.
8F\	.	.	.	.	8ff\J	.
8E-y\	.	.	.	.	4gg\	.
8G\J	.	.	.	.	.	.
=29	=29	=29	=29	=29	=29	=29
8A-X\L	.	9	4b-y\]	.	4cc\	.
8G\	.	.	.	.	.	.
8F\	.	-	[2a-X/	.	4ff\	.
8E-y\	.	.	.	.	.	.
8F\	.	.	.	.	4d/	.
8D\J	.	.	.	.	.	.
=30	=30	=30	=30	=30	=30	=30
8E-y\L	.	5 4-r	4a-y/]	.	4B-y/	.
8F\	.	.	.	.	.	.
8G\	.	6	2g/	.	4b-y\	.
8F\	.	.	.	.	.	.
8G\	.	.	.	.	[4ee-y\	.
8E-y\J	.	.	.	.	.	.
=31	=31	=31	=31	=31	=31	=31
8A-X\L	.	6 5	2.f/	.	4ee-y\]	.
8F\	.	.	.	.	.	.
8B-y\	.	.	.	.	4B-y/	.
8A-X\	.	.	.	.	.	.
8B-y\	.	.	.	.	4dd\t	.
8BB-y\J	.	.	.	.	.	.
=32	=32	=32	=32	=32	=32	=32
2.EE-y/	.	.	2.g/	.	2.ee-y\	.
=:|!	=:|!	=:|!	=:|!	=:|!	=:|!	=:|!
*-	*-	*-	*-	*-	*-	*-
!!!SMS: RV 65 / Estienne Roger (No. 363), Amsterdam [facs.]
!!!ENC: Fran Bennion   rev. 05/14/21 E Correia
!!!END: 2004/10/18
!!!ONB: Converted from MuseData with musedata2hum on Sat May 11 12:01:56 2024
!!!YEM: (C) 2004, 2019 Center for Computer Assisted Research in the Humanities
!!!system-decoration: [(s1,s2,s3)]
!!!URL-info: https://wiki.ccarh.org/wiki/MuseData:_Antonio_Vivaldi#Op._1:_Suonate_da_camera_a_tr.C3.A8.2C_due_violini_e_violone_o_cembalo Information about Vivaldi Op. 1 on the CCARH wiki
!!!URL-pdf: https://pdf.musedata.org/vivaldi-op01-no07.pdf#page=4 MuseData edition
!!!URL-pdf: https://s9.imslp.org/files/imglnks/usimg/1/18/IMSLP280399-PMLP10351-Vivaldi_Sonatas_Op_1_-_Violino_Primo.pdf#page=11 Violino primo part, Amsterdam: Estienne Roger, n.d.(ca.1723). Plate 363.
!!!URL-pdf: https://s9.imslp.org/files/imglnks/usimg/d/d5/IMSLP280400-PMLP10351-Vivaldi_Sonatas_Op_1_-_Violino_Secondo.pdf#page=10 Violino secondo part, Amsterdam: Estienne Roger, n.d.(ca.1723). Plate 363.
!!!URL-pdf: https://s9.imslp.org/files/imglnks/usimg/8/89/IMSLP280401-PMLP10351-Vivaldi_Sonatas_Op_1_-_Organo_e_Violoncello.pdf#page=10 Organo e Violoncello parts, Amsterdam: Estienne Roger, n.d.(ca.1723). Plate 363.
!!!URL-youtube: https://www.youtube.com/watch?v=P5HHPe_W6Uo&t=3323s L'Arte dell'Arco
!!!title: @{OTL}, mov. @{OMV}
!!!filter-vcross: vcross
!!!EEV: 2024/05/11
!!!source-file: https://bitbucket.org/musedata/vivaldi/src/master/roger/op1/no07/stage2/03/01
!!!source-file: https://bitbucket.org/musedata/vivaldi/src/master/roger/op1/no07/stage2/03/02
!!!source-file: https://bitbucket.org/musedata/vivaldi/src/master/roger/op1/no07/stage2/03/03
!!!source-file: https://bitbucket.org/musedata/vivaldi/src/master/roger/op1/no07/stage2/03/04
